X: 10627
T: Dowd's No. 9
R: reel
M: 4/4
K: Dmajor
|:DFAF GFEF|D2FA dABG|DFAF ~G3B|AGFD A,CEC|
DFAF GFEF|D2FA dABG|~F3A ~G3B|1 AGFD EDDA,:|2 AGFD EDD2||
|:fd~d2 g2ag|fedf ecA2|fd~d2 gfec|dcde fddA|
dfaf gfeg|fedf ecAF|GABG FAdB|AGFD EDD2:|

